X: 6647
T: Ceannt The Piper
R: jig
M: 6/8
K: Gmajor
AG|FDD AGE|Fzd dAG|FDD AdB|cAF GAG|
FDD AGE|FAd dAB|~c3 cAF|~G3 GAG|
FDD AGE|FAd dAG|FDD AdB|cAF GAG|
FDD AGE|Fzd dAB|~c3 cAF|~G3 GAG|
|:FAd dAd|BAG ADD|FAD FAd|BAF EFG|
FAd dAd|BAG ADD|ded cAF|~G3 GAG:|
|:FDD ADD|BAG ADD|FDD ADd|BAF EFG|
FDD ADD|BAG ADD|ded cAF|~G3 GAG:|
FAd dAd|fde dAG|FAd deg|fdA ~G3|
FAd dAd|fde dAB|~c3 cAF|~G3 GAG|
FAd dAd|fde dAG|FAd deg|fdA ~G3|
FAd dAd|fdf g3|afd g/f/ed|d/c/AF G|

